Pods/ProtonCore-UIFoundations/libraries/UIFoundations/Sources/Assets.xcassets/Images/IconSet/ic-brand-chrome.imageset/ic-brand-chrome.svg

<svg width="24" height="24" viewBox="0 0 24 24" fill="none" xmlns="http://www.w3.org/2000/svg">
<path d="M7.31175 2.60206C5.93388 3.2865 4.72614 4.26318 3.77042 5.46008L7.3162 11.6C7.48887 9.7755 8.7274 8.14294 10.5858 7.55845C11.0213 7.42169 11.4743 7.34871 11.9307 7.34236H21.4241C18.8362 2.13752 12.5182 0.0153474 7.31175 2.60206Z" fill="#0C0C14"/>
<path d="M15.8786 12.0405C15.8786 14.1681 14.1533 15.8929 12.025 15.8929C9.89664 15.8929 8.17129 14.1681 8.17129 12.0405C8.17129 9.9128 9.89664 8.18799 12.025 8.18799C14.1533 8.18799 15.8786 9.9128 15.8786 12.0405Z" fill="#0C0C14"/>
<path d="M14.5991 8.18799H21.7935C22.355 9.64254 22.588 11.2075 22.4702 12.77C22.0351 18.5231 17.0499 22.8442 11.3057 22.4784L15.9126 14.5012C15.9583 14.4273 16.0018 14.3521 16.043 14.2756L16.0827 14.2071L16.0802 14.2058C16.4223 13.5471 16.6055 12.8128 16.609 12.0624C16.6163 10.4599 15.8202 9.04156 14.5991 8.18799Z" fill="#0C0C14"/>
<path d="M7.81453 14.1537C8.10369 14.7017 8.49886 15.1901 8.98101 15.5877C10.4176 16.7728 12.349 16.9613 13.9354 16.2331L10.3878 22.3762C8.88007 22.1385 7.43903 21.5756 6.16591 20.7224C1.36573 17.5055 0.06277 11.0282 3.22607 6.20893L7.81453 14.1537Z" fill="#0C0C14"/>
</svg>

<svg xmlns="http://www.w3.org/2000/svg" width="24" height="24" viewBox="0 0 24 24">
  <g class="ic-brand-chrome">
    <g class="Icon">
      <path d="M7.312 2.602A10.522 10.522 0 0 0 3.77 5.46l3.546 6.14a4.7 4.7 0 0 1 4.615-4.258h9.493C18.836 2.138 12.518.015 7.312 2.602Z"/>
      <path d="M15.879 12.04a3.853 3.853 0 1 1-7.706 0 3.853 3.853 0 0 1 7.706 0Z"/>
      <path d="M14.6 8.188h7.194c.561 1.455.794 3.02.676 4.582-.435 5.753-5.42 10.074-11.164 9.708l4.607-7.977c.045-.074.089-.149.13-.225l.04-.069-.003-.001a4.698 4.698 0 0 0-1.48-6.018Z"/>
      <path d="M7.815 14.154a4.702 4.702 0 0 0 6.12 2.08l-3.547 6.142a10.528 10.528 0 0 1-4.222-1.654c-4.8-3.216-6.103-9.694-2.94-14.513l4.589 7.945Z"/>
    </g>
  </g>
</svg>
